icon-themes/breeze_svg/cmd/sc_freezepanes.svg

<svg viewBox="0 0 16 16" xmlns="http://www.w3.org/2000/svg">/&gt;<path d="m2 2v3 2 1 2 1 2 1h12v-1-2-1-2-1-2-3zm3 3h1 1 1v2h-1-1-1zm4 0h4v2h-4zm-4 3h1 1 1v2h-1-1-1zm4 0h4v2h-4zm-4 3h1 1 1v2h-1-1-1zm4 0h4v2h-4z" fill="#4d4d4d"/></svg>

<svg xmlns="http://www.w3.org/2000/svg" viewBox="0 0 16 16">
     />
 <path 
     style="fill:#4d4d4d" 
     d="M 2 2 L 2 5 L 2 7 L 2 8 L 2 10 L 2 11 L 2 13 L 2 14 L 14 14 L 14 13 L 14 11 L 14 10 L 14 8 L 14 7 L 14 5 L 14 2 L 2 2 z M 5 5 L 6 5 L 7 5 L 8 5 L 8 7 L 7 7 L 6 7 L 5 7 L 5 5 z M 9 5 L 13 5 L 13 7 L 9 7 L 9 5 z M 5 8 L 6 8 L 7 8 L 8 8 L 8 10 L 7 10 L 6 10 L 5 10 L 5 8 z M 9 8 L 13 8 L 13 10 L 9 10 L 9 8 z M 5 11 L 6 11 L 7 11 L 8 11 L 8 13 L 7 13 L 6 13 L 5 13 L 5 11 z M 9 11 L 13 11 L 13 13 L 9 13 L 9 11 z "
     />
 </svg>
